src/symbolic/apps/preferences-system-devices-symbolic.svg

<?xml version="1.0" encoding="UTF-8" standalone="no"?>
<svg
   xmlns:dc="http://purl.org/dc/elements/1.1/"
   xmlns:cc="http://creativecommons.org/ns#"
   xmlns:rdf="http://www.w3.org/1999/02/22-rdf-syntax-ns#"
   xmlns:svg="http://www.w3.org/2000/svg"
   xmlns="http://www.w3.org/2000/svg"
   xmlns:sodipodi="http://sodipodi.sourceforge.net/DTD/sodipodi-0.dtd"
   xmlns:inkscape="http://www.inkscape.org/namespaces/inkscape"
   width="16"
   height="16"
   version="1.1"
   id="svg8"
   sodipodi:docname="preferences-system-devices-symbolic.svg"
   inkscape:version="0.92.4 (5da689c313, 2019-01-14)">
  <metadata
     id="metadata14">
    <rdf:RDF>
      <cc:Work
         rdf:about="">
        <dc:format>image/svg+xml</dc:format>
        <dc:type
           rdf:resource="http://purl.org/dc/dcmitype/StillImage" />
      </cc:Work>
    </rdf:RDF>
  </metadata>
  <defs
     id="defs12">
    <filter
       style="color-interpolation-filters:sRGB"
       id="filter7554">
      <feBlend
         mode="darken"
         in2="BackgroundImage"
         id="feBlend7556" />
    </filter>
  </defs>
  <sodipodi:namedview
     pagecolor="#ffffff"
     bordercolor="#666666"
     borderopacity="1"
     objecttolerance="10"
     gridtolerance="10"
     guidetolerance="10"
     inkscape:pageopacity="0"
     inkscape:pageshadow="2"
     inkscape:window-width="1366"
     inkscape:window-height="711"
     id="namedview10"
     showgrid="true"
     inkscape:zoom="41.7193"
     inkscape:cx="6.0409852"
     inkscape:cy="4.255394"
     inkscape:window-x="0"
     inkscape:window-y="27"
     inkscape:window-maximized="1"
     inkscape:current-layer="svg8"
     inkscape:snap-smooth-nodes="true"
     inkscape:snap-midpoints="true">
    <inkscape:grid
       type="xygrid"
       id="grid821" />
  </sodipodi:namedview>
  <path
     style="color:#000000;display:inline;overflow:visible;visibility:visible;fill:#666666;fill-opacity:1;fill-rule:nonzero;stroke:none;stroke-width:4;marker:none;filter:url(#filter7554);enable-background:accumulate"
     d="M 3,2 V 6 H 2 C 1,6 1,7 1,7 v 5 h 2 v 2 H 6 V 13 H 4 V 12 H 6 V 6 H 4 V 3 h 7 v 2 h 1 V 2 Z M 3,8 H 4 V 9 H 3 Z"
     id="rect2997-5"
     inkscape:connector-curvature="0"
     sodipodi:nodetypes="ccscccccccccccccccccccccc" />
  <path
     style="opacity:1;fill:#666666;fill-opacity:1;stroke:none;stroke-width:2;stroke-linecap:round;stroke-linejoin:miter;stroke-miterlimit:4;stroke-dasharray:none;stroke-opacity:1;paint-order:markers stroke fill"
     d="M 8.0019531,6 C 7.4470834,6 7,6.446 7,7 v 4 c 0,0.554 0.4470834,1 1.0019531,1 H 14 c 0.55487,0 1.001953,-0.446 1.001953,-1 V 7 C 15.001953,6.446 14.55487,6 14,6 Z M 8,7 h 6.001953 v 4 H 8 Z"
     id="rect823"
     inkscape:connector-curvature="0"
     sodipodi:nodetypes="sssssssssccccc" />
  <rect
     style="opacity:1;fill:#666666;fill-opacity:1;stroke:none;stroke-width:2;stroke-linecap:round;stroke-linejoin:miter;stroke-miterlimit:4;stroke-dasharray:none;stroke-opacity:1;paint-order:markers stroke fill"
     id="rect828"
     width="4"
     height="1"
     x="9"
     y="13"
     rx="0"
     ry="0" />
</svg>

<svg xmlns="http://www.w3.org/2000/svg" width="16" height="16"><defs><filter id="a" color-interpolation-filters="sRGB"><feBlend mode="darken" in2="BackgroundImage"/></filter></defs><path style="marker:none" d="M3 2v4H2C1 6 1 7 1 7v5h2v2h3v-1H4v-1h2V6H4V3h7v2h1V2zm0 6h1v1H3z" color="#000" overflow="visible" fill="#5d656b" filter="url(#a)" enable-background="accumulate"/><path d="M8.002 6A.999.999 0 0 0 7 7v4c0 .554.447 1 1.002 1H14a.999.999 0 0 0 1.002-1V7c0-.554-.447-1-1.002-1zM8 7h6.002v4H8z" fill="#5d656b" paint-order="markers stroke fill"/><rect width="4" height="1" x="9" y="13" rx="0" ry="0" fill="#5d656b" paint-order="markers stroke fill"/></svg>
